src/Resource_Files/material/index-add.svg

<svg clip-rule="evenodd" fill-rule="evenodd" stroke-linejoin="round" stroke-miterlimit="2" viewBox="0 0 24 24" xmlns="http://www.w3.org/2000/svg"><path d="m0 0h24v24h-24z" fill="none"/><g fill="#1abc9c"><path d="m7 17h14v2h-14z" transform="matrix(.714286 0 0 1 7 -1)"/><path d="m7 11h14v2h-14z" transform="matrix(0 -.714286 1 0 5 27)"/><path d="m7 15h-2c-1.103 0-2 .897-2 2v2c0 1.103.897 2 2 2h2c1.103 0 2-.897 2-2v-2c0-1.103-.897-2-2-2z" fill-rule="nonzero" transform="translate(-1 -12)"/><path d="m12 17h10c.552 0 1-.448 1-1s-.448-1-1-1h-10c-.552 0-1 .448-1 1s.448 1 1 1z" transform="translate(-1 -12)"/><path d="m12 21h6c.552 0 1-.448 1-1s-.448-1-1-1h-6c-.552 0-1 .448-1 1s.448 1 1 1z" transform="translate(-1 -12)"/></g></svg>

<?xml version="1.0" encoding="UTF-8" standalone="no"?>
<!DOCTYPE svg PUBLIC "-//W3C//DTD SVG 1.1//EN" "http://www.w3.org/Graphics/SVG/1.1/DTD/svg11.dtd">
<svg width="100%" height="100%" viewBox="0 0 24 24" version="1.1" xmlns="http://www.w3.org/2000/svg" xmlns:xlink="http://www.w3.org/1999/xlink" xml:space="preserve" xmlns:serif="http://www.serif.com/" style="fill-rule:evenodd;clip-rule:evenodd;stroke-linejoin:round;stroke-miterlimit:2;">
    <rect x="0" y="0" width="24" height="24" style="fill:none;fill-rule:nonzero;"/>
    <g transform="matrix(0.714286,0,0,1,7,-1)">
        <rect x="7" y="17" width="14" height="2" style="fill:rgb(26,188,156);fill-rule:nonzero;"/>
    </g>
    <g transform="matrix(4.37374e-17,-0.714286,1,6.12323e-17,5,27)">
        <rect x="7" y="11" width="14" height="2" style="fill:rgb(26,188,156);fill-rule:nonzero;"/>
    </g>
    <g transform="matrix(1,0,0,1,-1,-12)">
        <path d="M7,15L5,15C3.897,15 3,15.897 3,17L3,19C3,20.103 3.897,21 5,21L7,21C8.103,21 9,20.103 9,19L9,17C9,15.897 8.103,15 7,15Z" style="fill:rgb(26,188,156);fill-rule:nonzero;"/>
    </g>
    <g transform="matrix(1,0,0,1,-1,-12)">
        <path d="M12,17L22,17C22.552,17 23,16.552 23,16C23,15.448 22.552,15 22,15L12,15C11.448,15 11,15.448 11,16C11,16.552 11.448,17 12,17Z" style="fill:rgb(26,188,156);"/>
    </g>
    <g transform="matrix(1,0,0,1,-1,-12)">
        <path d="M12,21L18,21C18.552,21 19,20.552 19,20C19,19.448 18.552,19 18,19L12,19C11.448,19 11,19.448 11,20C11,20.552 11.448,21 12,21Z" style="fill:rgb(26,188,156);"/>
    </g>
</svg>
